Origami/32x32/apps/visual-studio-code-insiders.svg

<svg width="32" height="32" version="1" xmlns="http://www.w3.org/2000/svg">
 <path d="m20.921875 2.9993537a4.0004 4.0004 0 0 0 -2.75 1.171875l-5.441406 5.4394531-2.275391-1.7695312a4.0004 4.0004 0 0 0 -4.2441405 -0.4199219l-2 1a4.0004 4.0004 0 0 0 -2.2109375 3.5781253v10a4.0004 4.0004 0 0 0 2.2109375 3.578125l2 1a4.0004 4.0004 0 0 0 4.2441405 -0.419922l2.275391-1.769531 5.441406 5.439453a4.0004 4.0004 0 0 0 4.314453 0.886719l5-2a4.0004 4.0004 0 0 0 2.513672 -3.714844v-16a4.0004 4.0004 0 0 0 -2.513672 -3.7148438l-5-2a4.0004 4.0004 0 0 0 -1.564453 -0.2851562z" style="opacity:.2"/>
 <path d="m 20.921875,2 a 4.0004,4.0004 0 0 0 -2.75,1.171875 L 12.730469,8.6113281 10.455078,6.8417969 A 4.0004,4.0004 0 0 0 6.2109375,6.421875 l -2,1 A 4.0004,4.0004 0 0 0 2,11 v 10 a 4.0004,4.0004 0 0 0 2.2109375,3.578125 l 2,1 a 4.0004,4.0004 0 0 0 4.2441405,-0.419922 l 2.275391,-1.769531 5.441406,5.439453 a 4.0004,4.0004 0 0 0 4.314453,0.886719 l 5,-2 A 4.0004,4.0004 0 0 0 30,24 V 8 A 4.0004,4.0004 0 0 0 27.486328,4.2851562 l -5,-2 A 4.0004,4.0004 0 0 0 20.921875,2 Z" style="fill:#009d3d"/>
 <path d="m21 7-7.938 7.938-5.062-3.938-2 1v10l2 1 5.062-3.938 7.938 7.938 5-2v-16l-5-2zm0 5.8887v8.2227l-5.285-4.112 5.285-4.111zm-13 1.111l3 3-3 3v-6z" fill-rule="evenodd" opacity=".2"/>
 <path d="M 21,6 13.0625,13.9375 8,10 6,11 V 21 L 8,22 13.0625,18.0625 21,26 26,24 V 8 Z m 0,5.888672 v 8.222656 L 15.714844,16 Z M 8,13 l 3,3 -3,3 z" style="fill-rule:evenodd;fill:#ffffff"/>
 <path d="m20.921875 2a4.0004 4.0004 0 0 0 -2.75 1.171875l-5.441406 5.4394531-2.275391-1.7695312a4.0004 4.0004 0 0 0 -4.2441405 -0.4199219l-2 1a4.0004 4.0004 0 0 0 -2.2109375 3.578125v0.970703a4.0004 4.0004 0 0 1 2.2109375 -3.548828l2-1a4.0004 4.0004 0 0 1 4.2441405 0.4199219l2.275391 1.7695312 5.441406-5.4394531a4.0004 4.0004 0 0 1 2.75 -1.171875 4.0004 4.0004 0 0 1 1.564453 0.2851562l5 2a4.0004 4.0004 0 0 1 2.513672 3.7148438v-1a4.0004 4.0004 0 0 0 -2.513672 -3.7148438l-5-2a4.0004 4.0004 0 0 0 -1.564453 -0.2851562z" style="fill:#ffffff;opacity:.1"/>
</svg>

<svg xmlns="http://www.w3.org/2000/svg" width="32" height="32" version="1">
 <path style="opacity:0.2" d="m 20.921875,2.9993537 a 4.0004,4.0004 0 0 0 -2.75,1.171875 L 12.730469,9.6106818 10.455078,7.8411506 A 4.0004,4.0004 0 0 0 6.2109375,7.4212287 l -2,1 A 4.0004,4.0004 0 0 0 2,11.999354 v 10 a 4.0004,4.0004 0 0 0 2.2109375,3.578125 l 2,1 a 4.0004,4.0004 0 0 0 4.2441405,-0.419922 l 2.275391,-1.769531 5.441406,5.439453 a 4.0004,4.0004 0 0 0 4.314453,0.886719 l 5,-2 A 4.0004,4.0004 0 0 0 30,24.999354 V 8.9993537 A 4.0004,4.0004 0 0 0 27.486328,5.2845099 l -5,-2 A 4.0004,4.0004 0 0 0 20.921875,2.9993537 Z"/>
 <path style="fill:#009d3d" d="m 20.921875,2 a 4.0004,4.0004 0 0 0 -2.75,1.171875 L 12.730469,8.6113281 10.455078,6.8417969 A 4.0004,4.0004 0 0 0 6.2109375,6.421875 l -2,1 A 4.0004,4.0004 0 0 0 2,11 v 10 a 4.0004,4.0004 0 0 0 2.2109375,3.578125 l 2,1 a 4.0004,4.0004 0 0 0 4.2441405,-0.419922 l 2.275391,-1.769531 5.441406,5.439453 a 4.0004,4.0004 0 0 0 4.314453,0.886719 l 5,-2 A 4.0004,4.0004 0 0 0 30,24 V 8 A 4.0004,4.0004 0 0 0 27.486328,4.2851562 l -5,-2 A 4.0004,4.0004 0 0 0 20.921875,2 Z"/>
 <path fill-rule="evenodd" opacity=".2" d="m21 7-7.938 7.938-5.062-3.938-2 1v10l2 1 5.062-3.938 7.938 7.938 5-2v-16l-5-2zm0 5.8887v8.2227l-5.285-4.112 5.285-4.111zm-13 1.111l3 3-3 3v-6z"/>
 <path style="fill:#ffffff;fill-rule:evenodd" d="M 21,6 13.0625,13.9375 8,10 6,11 V 21 L 8,22 13.0625,18.0625 21,26 26,24 V 8 Z m 0,5.888672 v 8.222656 L 15.714844,16 Z M 8,13 l 3,3 -3,3 z"/>
 <path style="opacity:0.1;fill:#ffffff" d="M 20.921875 2 A 4.0004 4.0004 0 0 0 18.171875 3.171875 L 12.730469 8.6113281 L 10.455078 6.8417969 A 4.0004 4.0004 0 0 0 6.2109375 6.421875 L 4.2109375 7.421875 A 4.0004 4.0004 0 0 0 2 11 L 2 11.970703 A 4.0004 4.0004 0 0 1 4.2109375 8.421875 L 6.2109375 7.421875 A 4.0004 4.0004 0 0 1 10.455078 7.8417969 L 12.730469 9.6113281 L 18.171875 4.171875 A 4.0004 4.0004 0 0 1 20.921875 3 A 4.0004 4.0004 0 0 1 22.486328 3.2851562 L 27.486328 5.2851562 A 4.0004 4.0004 0 0 1 30 9 L 30 8 A 4.0004 4.0004 0 0 0 27.486328 4.2851562 L 22.486328 2.2851562 A 4.0004 4.0004 0 0 0 20.921875 2 z"/>
</svg>
